X:1
T:Voi mi ponest'
T:Voi mi ponest'
T:Jacques Arcadelt
T:Source : Il primo libro di madrigali a 3 voci---Venetia---A.Gardano---1559. Editor : André Vierendeels (23/10/14).
T:Notes : Original clefs : C1, C1, C4 Original note values have been halved Editorial accidentals above the staff
C:Jacques Arcadelt
%%score [ 1 2 3 ]
L:1/8
Q:1/4=100
M:2/2
K:F
V:1 treble nm="Canto 1" snm="C 1"
V:2 treble nm="Canto 2" snm="C 2"
V:3 treble-8 nm="Tenor" snm="T"
V:1
 F8- | F8 | G6 G2 | A4 F4 | B8 | A4 z2 c2 | c2 c2 c2 c2 | d4 c4 | A2 B2 G4 | F4 z2 A2 | %10
w: Voi|_|mi po-|nest' in|fo-|co, per|far- mi'an- ti'l mio|di don-|na per- i-|re, et|
 A2 G2 F2 E2 | F4 z2 C2 | D3 C DE F2- | FE/D/ E2 F4 | z2 A2 B2 c2 | d2 c2 c2 B2 | c6 d2 | B4 A4 | %18
w: per- che que- sto|mal vi|pa- * * * rea|_ _ _ po- co|co'l pian- to|rad- dop- pia- sti'l|mio lan|gui- re,|
 c8 | B2 A2 G2 F2 | B4 A2 F2 | c6 c2 | d2 d2 c4 | c2 c2 c2 B2 | c4 A2 A2 | A2 G2 A3 B | %26
w: Hor|io vi- vo ben|di- re, le-|va- te|l'un mar- ti-|re, che di due|mor- te, che|di due mor- t'io|
 c3 B A2 G2 | F6 ED | E4 z2 F2 | E2 C2 c4- | c4 A4 | z2 c4 B2 | A2 A2 G4- | G4 F4- | F8- | F8 |] %36
w: non pos- so mo-|ri- * *|re, che|di due mor-|* te|non pos-|so mo- ri-|* re.|_||
V:2
 C4 D4- | D2 C2 D2 F2- | F2 ED F2 E2 | F2 A2 AGFE | DE F3 E/D/ E2 | F4 z2 A2 | A2 A2 G2 A2 | %7
w: Voi mi|_ po- nest' in|_ _ _ fo- *|co, in fo- * * *||co, per|far- mi'an- ti'l mio|
 B4 G2 A2- | AG F3 E/D/ E2 | F4 z2 c2 | c3 B A2 G2 | A8 | z2 F2 G2 A2 | B4 A4 | z2 F2 G2 A2 | %15
w: di don- na|_ per- i- * * *|re, et|per- che que- sto|mal|vi pa- rea|po- co|co'l pian- to|
 D2 E2 F4 | G2 A3 G F2- | F2 E2 F4 | A8 | G2 F2 D2 F2- | FE/D/ E2 F4 | z2 C2 F4- | F2 F2 G2 G2 | %23
w: rad- dop- pia-|sti'l mio lan- gui-|* * re,|Hor|io vo- vo ben|_ _ _ di- re,|le- va-|* te l'un mar-|
 A3 G FE F2- | F2 E2 F2 F2 | F2 E2 F3 G | A2 G2 F2 E2 | A4 G2 c2 | A2 G2 c4 | G4 z2 A2 | G2 E2 F4 | %31
w: ti- * * * *|* * re, che|di due mor- t'io|non pos- so mo-|ri- re, che|di due mor-|te, che|di due mor-|
 E2 A4 G2 | E2 F4 ED | F2 E2 F2 C2 | D4 C4- | C8 |] %36
w: t'io non pos-|so mo- * *|* ri- re, mo-|ri- re.|_|
V:3
 F4 B4- | B2 A2 B2 d2 | c8 | F2 f3 edc | B2 A2 G4 | F4 z2 F2 | F2 F2 c2 F2 | B4 c4 | c2 d2 c4 | %9
w: Voi mi|_ po- nest' in|fo-|co, in _ _ _|_ _ fo-|co, per|far- mi'an- ti'l mio|di don-|na per- *|
 F8 | z2 c2 F2 c2 | d2 d2 c2 F2 | B6 A2 | G4 F4- | F4 z2 A2 | B2 c2 d2 d2 | c2 c2 A2 B2 | G4 F4- | %18
w: re,|et per- che|que- sto mal vi|pa- rea|po- co|_ co'l|pian- to rad- dop-|pia- sti'l mio lan-|gui- re,|
 F4 z2 F2 | G2 A2 B3 A | G4 F4- | F4 z4 | z2 F2 c4- | c2 c2 d2 d2 | c4 F2 F2 | F2 c2 F3 F | %26
w: _ Hor|io vi- vo ben|di- re,|_|le- va|_ te l'un mar-|ti- re, che|di due mor- t'io|
 F2 E2 F2 c2 | A2 GF c4 | z2 c2 A2 F2 | c4 F2 f2 | e2 c2 d4 | c2 F4 G2 | A2 F2 c4- | c4 F2 F2 | %34
w: non pos- so mo-|ri- * * re,|che di due|mor- te, che|di due mor-|t'io non pos-|so mo- ri-|* re, mo-|
 B4 F4- | F8 |] %36
w: ri- re.|_|

